X: 17
T: Prince William Henry's Birth Day
R: jig
M: 6/8
L: 1/8
Z: 2010 John Chambers <jc:trillian.mit.edu>
B: John Johnson ed. "Twenty Four Country Dances", p.81 London 1766
K: F
|: fga efg | def edc | def edc | BAG F3 :||: ABc GAB | ABc C3  |
   fcA geB | ABc C3  | faf dfd | gbg ece | fed cBA | GFE F3 :|


%%sep 5 1 500

